!!!COM: Satie, Erik
!!!OTL: "2eme Gymnopedie" [2nd Gymnopedie] for piano.
!! Belwin Mills Publishing.
!! pages 5-7.
!! NOTE: Set tab-stops to 14 (:ts=14)
!! Lent et triste
**kern	**kern	**kern	**dyn
*M3/4	*M3/4	*M3/4	*M3/4
=1	=1	=1	=1
2.GG	4r	2.r	pp
.	2B 2e 2g	.	.
=2	=2	=2	=2
2.DD	4r	2.r	.
.	2A 2c 2f 2a	.	.
=3	=3	=3	=3
2.GG	4r	2.r	.
.	2B 2e 2g	.	.
=4	=4	=4	=4
2.DD	4r	2.r	.
.	2A 2c 2f 2a	.	.
=5	=5	=5	=5
2.GG	4r	{2.gg	p
.	2B 2e 2g	.	<
=6	=6	=6	=6
2.DD	4r	4aa	.
.	2A 2c 2f 2a	4gg	.
.	.	4ff	.
=7	=7	=7	=7
2.GG	4r	4ee	>
.	2B 2e 2g	4ff	.
.	.	4gg	.
=8	=8	=8	=8
2.DD	4r	2.dd}	.
.	2A 2c 2f 2a	.	.
=9	=9	=9	=9
2.GG	4r	{2.gg	<
.	2B 2e 2g	.	.
=10	=10	=10	=10
2.DD	4r	4aa	.
.	2A 2c 2f 2a	4gg	>
.	.	4ff	.
=11	=11	=11	=11
2.GG	4r	4ee	.
.	2B 2e 2g	4ff	.
.	.	4gg	.
=12	=12	=12	=12
2.DD	4r	4ff	.
.	2A 2c 2f 2a	2cc}	.
=13	=13	=13	=13
2.GG	4r	2.r	.
.	2B 2e 2g	.	.
=14	=14	=14	=14
2.DD	4r	2.r	.
.	2A 2c 2f 2a	.	.
=15	=15	=15	=15
2.CC	4r	{2.ccc	f
.	2c 2e 2a 2cc	.	<
=16	=16	=16	=16
2.CC	4r	4ff	.
.	2A 2c 2f 2a	4gg	.
.	.	4aa	.
=17	=17	=17	=17
2.CC	4r	2.gg	.
.	2B- 2e- 2g	.	.
!! page 6	.
=18	=18	=18	=18
2.FF	4r	2.cc	.
.	2G 2B- 2e- 2g	.	.
=19	=19	=19	=19
2.FF	4r	[2.ff	.
.	2A 2d 2f	.	.
=20	=20	=20	=20
2.FF	4r	4ff]	.
.	2G 2B- 2e- 2f	4ee-	.
.	.	4dd	.
=21	=21	=21	=21
2.FF	4r	[2.ff	.
.	2A 2d 2f	.	.
=22	=22	=22	=22
2.FF	4r	4ff]	.
.	2B- 2d 2f 2g	4gg	.
.	.	4bb-	.
=23	=23	=23	=23
2.FF	4r	4aa	>
.	2c 2e- 2a	4gg	.
.	.	4ff	.
=24	=24	=24	=24
2.BBB-	4r	2.gg	.
.	2B- 2d 2g	.	.
=25	=25	=25	=25
2.DD	4r	2.ff}	.
.	2A 2c 2f 2a	.	.
=26	=26	=26	=26
2.GG	4r	2.r	p
.	2B- 2d 2g	.	.
=27	=27	=27	=27
2.DD	4r	2.r	.
.	2A 2c 2f 2a	.	.
=28	=28	=28	=28
2.CC	4r	{2.ccc	f
.	2e- 2g 2cc	.	<
=29	=29	=29	=29
2.CC	4r	4aa-	.
.	2c 2f 2a- 2cc	4gg	.
.	.	4ff	.
=30	=30	=30	=30
2.CC	4r	2.gg	.
.	2B- 2d 2g 2b-	.	.
=31	=31	=31	=31
2.FF	4r	[2.ff	.
.	2An 2d 2f	.	.
=32	=32	=32	=32
2.FF	4r	4ff]	.
.	2G 2B- 2e- 2f	4ee-	>
.	.	4dd	.
=33	=33	=33	=33
2.FF	4r	2.ff	.
.	2A 2d 2f	.	.
=34	=34	=34	=34
2.FF	4r	[2.dd	.
.	2B- 2d 2f 2g	.	.
=35	=35	=35	=35
2.FF	4r	4dd]	.
.	2c 2e- 2a-	4ee-	.
.	.	4aa-	.
=36	=36	=36	=36
2.BBB-	4r	2.bb-	.
.	2B- 2d 2g	.	.
=37	=37	=37	=37
2.DD	4r	2.ff}	.
.	2An 2c 2f 2an	.	.
=38	=38	=38	=38
2.GG	4r	2.r	.
.	2Bn 2en 2g	.	.
=39	=39	=39	=39
2.DD	4r	2.r	.
.	2A 2c 2f 2a	.	.
=40	=40	=40	=40
2.GG	4r	{2.gg	p
.	2B 2e 2g	.	<
=41	=41	=41	=41
2.DD	4r	4ff	.
.	2A 2c 2f 2a	4gg	.
.	.	4aa	.
!! page 7	.
=42	=42	=42	=42
2.GG	4r	4ee	>
.	2B 2e 2g	4ff	.
.	.	4gg	.
=43	=43	=43	=43
2.DD	4r	2.dd}	.
.	2A 2c 2f 2a	.	.
=44	=44	=44	=44
2.GG	4r	{2.gg	<
.	2B 2e 2g	.	.
=45	=45	=45	=45
2.DD	4r	4ff	.
.	2A 2c 2f 2a	4gg	.
.	.	4aa	.
=46	=46	=46	=46
2.GG	4r	4ee	>
.	2B 2e 2g	4ff	.
.	.	4gg	.
=47	=47	=47	=47
2.DD	4r	4ff	.
.	2A 2c 2f 2a	2cc}	.
=48	=48	=48	=48
2.GG	4r	2.r	pp
.	2B 2e 2g	.	.
=49	=49	=49	=49
2.DD	4r	2.r	.
.	2A 2c 2f 2a	.	.
=50	=50	=50	=50
2.CC	4r	{2.ccc	f
.	2c 2e 2a 2cc	.	.
=51	=51	=51	=51
2.CC	4r	4ff	<
.	2A 2c 2f 2a	4gg	.
.	.	4aa	.
=52	=52	=52	=52
2.CC	4r	2.gg	.
.	2B- 2e- 2g	.	.
=53	=53	=53	=53
2.FF	4r	2.cc	.
.	2G 2B- 2e- 2g	.	.
=54	=54	=54	=54
2.FF	4r	2.ff	.
.	2A 2d 2f	.	.
=55	=55	=55	=55
2.FF	4r	2.gg	>
.	2G 2B- 2e- 2g	.	.
=56	=56	=56	=56
2.FF	4r	[2.dd	.
.	2A 2d 2f	.	.
=57	=57	=57	=57
2.FF	4r	2.dd_	.
.	2G 2B- 2d 2f	.	.
=58	=58	=58	=58
2.FF	4r	2.dd_	>
.	2G 2B- 2e- 2f	.	.
=59	=59	=59	=59
2.FF	4r	2dd]	.
.	2A 2d 2f	.	.
.	.	4ff	.
=60	=60	=60	=60
2.BBB-	4r	2.bb-	.
.	2B- 2d 2g	.	.
=61	=61	=61	=61
2.DD	4r	4aa	.
.	2A 2c 2f 2a	2ff}	.
=62	=62	=62	=62
2.GG	4r	2.r	pp
.	2B- 2d 2g	.	.
=63	=63	=63	=63
2.DD	4r	2.r	.
.	2A 2c 2f 2a	.	.
=64	=64	=64	=64
2.GG	4r	2.r	.
.	2B- 2d 2g	.	.
=65	=65	=65	=65
2.CC	4r	2.r	.
.	2c 2e 2g	.	.
==	==	==	==
*-	*-	*-	*-
